docs/img/about/lines-bg.svg

<svg width="1920" height="828" fill="none" xmlns="http://www.w3.org/2000/svg"><path d="M-69 417.977c42.147-53.247 198.864-174.091 488.551-231.494 362.108-71.753 590.439 33.858 706.999 87.492 235.29 108.267 443.79 126.448 540.03 118.647 212.94-17.261 379.5-94.775 484.42-249.645" stroke="#3F3F3F"/><path d="M-415.999 462.978c47.425-88.874 223.767-290.574 549.73-386.384 407.453-119.762 664.375 56.512 795.532 146.033C1194.02 403.334 1428.62 433.68 1536.92 420.659 1776.53 391.848 1963.94 262.47 2082 3.978" stroke="#3F3F3F"/><path d="M2419.44-436.542c-109.81 137.771-452.46 481.468-944.59 754.09C859.685 658.325 600.183 543.549 467.471 485.566c-267.891-117.043-571.458-50.841-725.367 15.106-340.534 145.912-661.371 399.923-953.724 791.658" stroke="#353535"/><path d="M2988.34-631c-148.11 218.214-589.35 748.281-1169.42 1122.836-725.1 468.193-968.216 213.291-1092.723 84.183C474.868 315.401 141.803 368.017-34.921 451.36-425.937 635.76-822.623 1013.43-1223 1638.03" stroke="#353535"/></svg>

<svg width="1920" height="828" viewBox="0 0 1920 828" fill="none" xmlns="http://www.w3.org/2000/svg">
<path d="M-69.0001 417.977C-26.8528 364.73 129.864 243.886 419.551 186.483C781.659 114.73 1009.99 220.341 1126.55 273.975C1361.84 382.242 1570.34 400.423 1666.58 392.622C1879.52 375.361 2046.08 297.847 2151 142.977" stroke="#3F3F3F"/>
<path d="M-415.999 462.978C-368.574 374.104 -192.232 172.404 133.731 76.5942C541.184 -43.1685 798.106 133.106 929.263 222.627C1194.02 403.334 1428.62 433.68 1536.92 420.659C1776.53 391.848 1963.94 262.47 2082 3.97803" stroke="#3F3F3F"/>
<path d="M2419.44 -436.542C2309.63 -298.771 1966.98 44.9261 1474.85 317.548C859.685 658.325 600.183 543.549 467.471 485.566C199.58 368.523 -103.987 434.725 -257.896 500.672C-598.43 646.584 -919.267 900.595 -1211.62 1292.33" stroke="#353535"/>
<path d="M2988.34 -631C2840.23 -412.786 2398.99 117.281 1818.92 491.836C1093.82 960.029 850.704 705.127 726.197 576.019C474.868 315.401 141.803 368.017 -34.9214 451.36C-425.937 635.76 -822.623 1013.43 -1223 1638.03" stroke="#353535"/>
</svg>
